!!!!SEGMENT: pl-kk--kk-i-7--006_pekiel-bartlomiej--ave-maria.krn
!!!cenid: 16xx:796
!!!COM: Pękiel, Bartłomiej
!!!COM-rismID: pe30105642
!!!CDT: <1633-~1670
!!!CNT: Polish
!!!OTL: Ave Maria
!!!PDT:
!!!AGN: Sacred
!!!SMS-siglum: PL-Kk
!!!SMS-shelfmark: Kk.I.7
!!!SMS-shelfwork: 006 W
!!!SMS-variant:
!!!SMS-altvar:
!!!NIFC-rismSourceID: 300258083
!!!NIFC-islandoraID: pl-kk:1956
!!!URL-pdf-islandora: https://repozytorium.nifc.pl/islandora/object/pl-kk%3A1956/datastream/PDF/view
!!!URL-scan: https://polish.musicsources.pl/pl/lokalizacje/galeria/rekopisy/6140 @EN{Scan on Polish Music Sources Website} @PL{Skany w portalu Dziedzictwo Muzyki Polskiej w otwartym dostępie}
!!!ONB-nifc: UWAGA: C (skan 0006-0007, s.7-8), A (0093-0094, s.7-8), T(0171, s.6-7), B(0259, s.8). Następny utwór: Sanctus
!!!AIN: 1 alto 1 bass 1 soprn 1 tenor
!!!key: d
**kern	**text	**text	**mod-text	**kern	**text	**text	**mod-text	**kern	**text	**text	**mod-text	**kern	**text	**text	**mod-text
*part4	*part4	*part4	*part4	*part3	*part3	*part3	*part3	*part2	*part2	*	*part2	*part1	*part1	*part1	*part1
*staff4	*staff4	*staff4	*staff4	*staff3	*staff3	*staff3	*staff3	*staff2	*staff2	*	*staff2	*staff1	*staff1	*staff1	*staff1
*Ibass	*	*	*	*Itenor	*	*	*	*Ialto	*	*	*	*Isoprn	*	*	*
*I"[BASSUS.]	*	*	*	*I"[TENOR.]	*	*	*	*I"[ALTVS.]	*	*	*	*I"[CANTVS.]	*	*	*
*mI"Basso	*	*	*	*mI"Tenore II	*	*	*	*mI"Tenore I	*	*	*	*mI"Soprano	*	*	*
*I'B	*	*	*	*I'T	*	*	*	*I'A	*	*	*	*I'S	*	*	*
*	*	*	*	*mI'T 2	*	*	*	*mI'T 1	*	*	*	*	*	*	*
*ICvox	*	*	*	*ICvox	*	*	*	*ICvox	*	*	*	*ICvox	*	*	*
*clefF4	*	*	*	*clefC4	*	*	*	*clefC4	*	*	*	*clefC3	*	*	*
*	*	*	*	*mclefGv2	*	*	*	*mclefGv2	*	*	*	*mclefG2	*	*	*
*k[b-]	*	*	*	*k[b-]	*	*	*	*k[b-]	*	*	*	*k[b-]	*	*	*
*d:	*	*	*	*d:	*	*	*	*d:	*	*	*	*d:	*	*	*
*M2/1	*	*	*	*M2/1	*	*	*	*M2/1	*	*	*	*M2/1	*	*	*
*met(c|)	*	*	*	*met(c|)	*	*	*	*met(c|)	*	*	*	*met(c|)	*	*	*
*mmet(c|)	*	*	*	*mmet(c|)	*	*	*	*mmet(c|)	*	*	*	*mmet(c|)	*	*	*
=1-	=1-	=1-	=1-	=1-	=1-	=1-	=1-	=1-	=1-	=1-	=1-	=1-	=1-	=1-	=1-
*all\right	*	*	*	*all\right	*	*	*	*all\right	*	*	*	*all\right	*	*	*
!LO:TX:a:t=P:problem=znaki B- BB-:mod=	!	!	!	!	!	!	!	!	!	!	!	!	!	!	!
!LO:TX:a:t=P:problem=kreska pseudotaktowa:mod=	!	!	!	!	!	!	!	!	!	!	!	!	!	!	!
0r	.	.	.	00r	.	.	.	1d	A-	.	A-	00r	.	.	.
.	.	.	.	.	.	.	.	2G/	-ue	.	-ve	.	.	.	.
*	*	*	*	*	*	*	*	*2\right	*	*	*	*	*	*	*
!	!	!	!	!	!	!	!	!LO:TX:a:t=P:problem=kreska pseudotaktowa:mod=	!	!	!	!	!	!	!
.	.	.	.	.	.	.	.	2B-\	Ma-	.	Ma-	.	.	.	.
=2-	=2-	=2-	=2-	=2-	=2-	=2-	=2-	=2-	=2-	=2-	=2-	=2-	=2-	=2-	=2-
1D	A-	.	A-	.	.	.	.	1A	-ri-	.	-ri-	.	.	.	.
2GG/	-ue	.	-ve	.	.	.	.	2B-\	-a	.	-a	.	.	.	.
!	!	!	!	!	!	!	!	!LO:TX:a:t=P:problem=kreska pseudotaktowa:mod=	!	!	!	!	!	!	!
2BB-/	Ma-	.	Ma-	.	.	.	.	2G/	Ma-	.	Ma-	.	.	.	.
=3-	=3-	=3-	=3-	=3-	=3-	=3-	=3-	=3-	=3-	=3-	=3-	=3-	=3-	=3-	=3-
!LO:TX:a:t=P:problem=kreska pseudotaktowa:mod=	!	!	!	!LO:TX:a:t=P:problem=kreska pseudotaktowa:mod=	!	!	!	!	!	!	!	!LO:TX:a:t=P:problem=kreska pseudotaktowa:mod=	!	!	!
1AA	-ri-	.	-ri-	00r	.	.	.	1c	-ri-	.	-ri-	1r	.	.	.
2GG,</	-a	.	-a	.	.	.	.	(2B-\	.	.	-a	1g	A-	.	A-
*2\right	*ij	*	*	*	*	*	*	*	*	*	*	*	*	*	*
!LO:TX:a:t=P:problem=kreska pseudotaktowa:mod=	!	!	!	!	!	!	!	!	!	!	!	!	!	!	!
2G\	A-	.	A-	.	.	.	.	4B-\)	.	.	.	.	.	.	.
!	!	!	!	!	!	!	!	!LO:TX:a:t=P:problem=kreska pseudotaktowa:mod=	!	!	!	!	!	!	!
.	.	.	.	.	.	.	.	4A\	-a	.	A-	.	.	.	.
=4-	=4-	=4-	=4-	=4-	=4-	=4-	=4-	=4-	=4-	=4-	=4-	=4-	=4-	=4-	=4-
*	*	*	*	*	*	*	*	*	*	*	*	*2\right	*	*	*
2G\	-ue	.	-ve	.	.	.	.	4B-\	A-	.	-ve	2d\	-ue	.	-ve
.	.	.	.	.	.	.	.	4c\	-ue	.	Ma-	.	.	.	.
!LO:TX:a:t=P:problem=kreska pseudotaktowa:mod=	!	!	!	!	!	!	!	!	!	!	!	!LO:TX:a:t=P:problem=kreska pseudotaktowa:mod=	!	!	!
2F\	Ma-	.	Ma-	.	.	.	.	1d	Ma-	.	-ri	2f\	Ma-	.	Ma-
2G\	-ri-	.	-ri-	.	.	.	.	.	.	.	.	1e	-ri-	.	-ri-
!	!	!	!	!	!	!	!	!LO:TX:t=P:problem=♯ above:mod=	!	!	!	!	!	!	!
2A\	.	.	.	.	.	.	.	2c#X\	-ri-	.	.	.	.	.	.
=5-	=5-	=5-	=5-	=5-	=5-	=5-	=5-	=5-	=5-	=5-	=5-	=5-	=5-	=5-	=5-
!	!	!	!	!	!	!	!	!LO:TX:a:t=P:problem=kreska pseudotaktowa:mod=	!	!	!	!	!	!	!
2B-\	a	.	a	1G	A-	.	A-	1d	-a	.	-a	2d\	-a	.	-a
*	*Xij	*	*	*	*	*	*	*	*	*	*	*	*ij	*	*
!LO:TX:a:t=P:problem=kreska pseudotaktowa:mod=	!	!	!	!	!	!	!	!	!	!	!	!LO:TX:a:t=P:problem=kreska pseudotaktowa:mod=	!	!	!
2B-\	Ma-	.	Ma-	.	.	.	.	.	.	.	.	2g\	A-	.	A-
!	!	!	!	!	!	!	!	!LO:TX:a:t=P:problem=kreska pseudotaktowa:mod=	!	!	!	!	!	!	!
4A\	-ri-	.	-ri-	2D/	-ue	.	-ve	00r	.	.	.	4f\	-ve	.	-ve
4G\	.	.	.	.	.	.	.	.	.	.	.	4e\	.	.	Ma-
!	!	!	!	!LO:TX:a:t=P:problem=kreska pseudotaktowa:mod=	!	!	!	!	!	!	!	!	!	!	!
4F\	.	.	.	2F/	Ma-	.	Ma-	.	.	.	.	1d\	Ma-	.	-ri-
8E\L	.	.	.	.	.	.	.	.	.	.	.	.	.	.	.
!LO:TX:a:t=P:problem=kreska pseudotaktowa:mod=	!	!	!	!	!	!	!	!	!	!	!	!	!	!	!
8D\J	.	.	.	.	.	.	.	.	.	.	.	.	.	.	.
=6-	=6-	=6-	=6-	=6-	=6-	=6-	=6-	=6-	=6-	=6-	=6-	=6-	=6-	=6-	=6-
1G	.	.	.	1E	-ri-	.	-ri-	.	.	.	.	.	.	.	.
.	.	.	.	.	.	.	.	.	.	.	.	2c#X/	-ri-	.	.
!	!	!	!	!	!	!	!	!	!	!	!	!LO:TX:a:t=P:problem=kreska pseudotaktowa:mod=	!	!	!
2F#X\	-a	.	-a	2D/	-a	.	-a	.	.	.	.	1d	-a	.	-a
!LO:TX:a:t=P:problem=kreska pseudotaktowa:mod=	!	!	!	!LO:TX:a:t=P:problem=kreska pseudotaktowa:mod=	!	!	!	!	!	!	!	!	!	!	!
*	*	*	*	*2\right	*ij	*	*	*	*	*	*	*	*Xij	*	*
2D/	A-	.	A-	2d\	A-	.	A-	.	.	.	.	.	.	.	.
=7-	=7-	=7-	=7-	=7-	=7-	=7-	=7-	=7-	=7-	=7-	=7-	=7-	=7-	=7-	=7-
!	!	!	!	!	!	!	!	!	!	!	!	!LO:TX:a:t=P:problem=kreska pseudotaktowa:mod=	!	!	!
4E\	-ue	.	-ue	2G/	-ue	.	-ve	.	.	.	.	1r	.	.	.
4Fny\	Ma-	.	Ma-	.	.	.	.	.	.	.	.	.	.	.	.
1G	-ri-	.	-ri-	2B-\	Ma-	.	Ma-	.	.	.	.	.	.	.	.
*	*	*	*	*	*	*	*	*	*ij	*	*	*	*	*	*
.	.	.	.	1A	-ri-	.	-ri-	1D	A-	.	A-	1d	A-	.	A-
!LO:TX:t=P:problem=♯ above:mod=	!	!	!	!	!	!	!	!	!	!	!	!	!	!	!
2F#X\	.	.	.	.	.	.	.	.	.	.	.	.	.	.	.
=8-	=8-	=8-	=8-	=8-	=8-	=8-	=8-	=8-	=8-	=8-	=8-	=8-	=8-	=8-	=8-
!LO:TX:a:t=P:problem=kreska pseudotaktowa:mod=	!	!	!	!LO:TX:a:t=P:problem=kreska pseudotaktowa:mod=	!	!	!	!	!	!	!	!	!	!	!
1G,<	-a	.	-a	1G	-a	.	-a	4E/	-ue	.	-ve	2G/	-ue	.	-ve
*	*	*	*	*	*Xij	*	*	*	*	*	*	*	*	*	*
.	.	.	.	.	.	.	.	4F/	Ma-	.	Ma-	.	.	.	.
!	!	!	!	!	!	!	!	!	!	!	!	!LO:TX:a:t=P:problem=kreska pseudotaktowa:mod=	!	!	!
.	.	.	.	.	.	.	.	1G	-ri-	.	-ri-	2B-/	Ma-	.	Ma-
*	*ij	*	*	*	*	*	*	*	*	*	*	*	*	*	*
1D	A-	.	A-	2rG	.	.	.	.	.	.	.	1A	-ri-	.	-ri-
!	!	!	!	!	!	!	!	!LO:TX:a:t=P:problem=kreska pseudotaktowa:mod=	!	!	!	!	!	!	!
!	!	!	!	!	!	!	!	!LO:TX:a:t=P:problem=# above:mod=	!	!	!	!	!	!	!
.	.	.	.	2D/	A-	.	A-	2F#X/	.	.	.	.	.	.	.
=9-	=9-	=9-	=9-	=9-	=9-	=9-	=9-	=9-	=9-	=9-	=9-	=9-	=9-	=9-	=9-
*	*	*	*	*	*	*	*	*lig	*	*	*	*	*	*	*
2GG/	-ue	.	-ve	4E/	-ve	.	-ve	1G	.	.	.	1G	-a	.	-a
.	.	.	.	4F/	Ma-	.	Ma-	.	.	.	.	.	.	.	.
*custos:A	*	*	*	*	*	*	*	*	*	*	*	*	*	*	*
!LO:TX:a:t=P:problem=kreska pseudotaktowa:mod=	!	!	!	!	!	!	!	!	!	!	!	!	!	!	!
2BB-/	Ma-	.	Ma-	1G	-ri-	.	-ri-	.	.	.	.	.	.	.	.
!LO:LB:g=original	!	!	!	!	!	!	!	!	!	!	!	!LO:TX:a:t=P:problem=kreska pseudotaktowa:mod=	!	!	!
1AA	-ri-	.	-ri-	.	.	.	.	1A	.	.	.	1cny	gra-	.	gra-
!	!	!	!	!LO:TX:t=P:problem=♯ above:mod=	!	!	!	!	!	!	!	!	!	!	!
.	.	.	.	2F#X/	.	.	.	.	.	.	.	.	.	.	.
*	*	*	*	*	*	*	*	*Xlig	*	*	*	*	*	*	*
=10-	=10-	=10-	=10-	=10-	=10-	=10-	=10-	=10-	=10-	=10-	=10-	=10-	=10-	=10-	=10-
!	!	!	!	!LO:TX:a:t=P:problem=kreska pseudotaktowa:mod=	!	!	!	!	!	!	!	!	!	!	!
2GG/	-a	.	-a	1G	-a	.	-a	2D/	-a	.	-a	2c/	-ti-	.	-ti-
*	*Xij	*	*	*	*	*	*	*	*Xij	*	*	*	*	*	*
!	!	!	!	!	!	!	!	!LO:TX:a:t=P:problem=kreska pseudotaktowa:mod=	!	!	!	!	!	!	!
2.G\	gra-	.	gra-	.	.	.	.	2rF	.	.	.	2B-/	-a	.	-a
!	!	!	!	!	!	!	!	!	!	!	!	!LO:TX:a:t=P:problem=kreska pseudotaktowa:mod=	!	!	!
.	.	.	.	0r	.	.	.	2r	.	.	.	1A	ple-	.	ple-
4G\	-ti-	.	-ti-	.	.	.	.	.	.	.	.	.	.	.	.
2Fny\	-a	.	-a	.	.	.	.	2.d\	Do-	.	Do-	.	.	.	.
=11-	=11-	=11-	=11-	=11-	=11-	=11-	=11-	=11-	=11-	=11-	=11-	=11-	=11-	=11-	=11-
1E-X	ple-	.	ple-	.	.	.	.	.	.	.	.	2G/	-na	.	-na
.	.	.	.	.	.	.	.	4d\	-mi-	.	-mi-	.	.	.	.
!	!	!	!	!	!	!	!	!LO:TX:a:t=P:problem=kreska pseudotaktowa:mod=	!	!	!	!	!	!	!
.	.	.	.	.	.	.	.	2cny\	-nus	.	-nus	2.g\	Do-	.	Do-
*	*	*	*	*	*	*	*	*custos:A	*	*	*	*	*	*	*
!LO:TX:a:t=P:problem=kreska pseudotaktowa:mod=	!	!	!	!	!	!	!	!	!	!	!	!	!	!	!
1D	-na	.	-na	2r	.	.	.	2B-\	te-	.	te-	.	.	.	.
.	.	.	.	.	.	.	.	.	.	.	.	4g\	-mi-	.	-mi-
*	*	*	*	*	*	*	*	*	*	*	*	*custos:e	*	*	*
!	!	!	!	!	!	!	!	!LO:LB:g=original	!	!	!	!LO:TX:a:t=P:problem=kreska pseudotaktowa:mod=	!	!	!
!	!	!	!	!LO:TX:a:t=P:problem=kreska pseudotaktowa:mod=	!	!	!	!LO:TX:a:t=P:problem=kreska pseudotaktowa:mod=	!	!	!	!	!	!	!
.	.	.	.	2.d\	Do-	.	Do-	2A/	.	.	.	2f\	-nus	.	-nus
!	!	!	!	!	!	!	!	!	!	!	!	!LO:LB:g=original	!	!	!
=12-	=12-	=12-	=12-	=12-	=12-	=12-	=12-	=12-	=12-	=12-	=12-	=12-	=12-	=12-	=12-
*	*	*	*	*	*	*	*	*	*	*	*	*lig	*	*	*
0r	.	.	.	.	.	.	.	2G/	.	.	.	1e	te-	.	te-
.	.	.	.	4d\	-mi-	.	-mi-	.	.	.	.	.	.	.	.
.	.	.	.	4c\	-nus	.	-nus	2A/	.	.	.	.	.	.	.
.	.	.	.	2c\	te-	.	te-	.	.	.	.	.	.	.	.
.	.	.	.	.	.	.	.	1B-	.	.	.	1d	.	.	.
.	.	.	.	8B-\L	.	.	.	.	.	.	.	.	.	.	.
.	.	.	.	8A\J	.	.	.	.	.	.	.	.	.	.	.
.	.	.	.	1B-\	.	.	.	.	.	.	.	.	.	.	.
*	*	*	*	*	*	*	*	*	*	*	*	*Xlig	*	*	*
=13-	=13-	=13-	=13-	=13-	=13-	=13-	=13-	=13-	=13-	=13-	=13-	=13-	=13-	=13-	=13-
2r	.	.	.	.	.	.	.	2Fny/	-cum	.	-cum	2c,</	-cum	.	-cum
*	*	*	*	*	*	*	*	*	*	*	*	*	*ij	*	*
!	!	!	!	!	!	!	!	!	!	!	!	!LO:TX:a:t=P:problem=kreska pseudotaktowa:mod=	!	!	!
2.F\	Do-	.	Do-	4A\	.	.	.	4F/	Do-	.	Do-	2f\	Do-	.	Do-
!	!	!	!	!LO:TX:a:t=P:problem=kreska pseudotaktowa:mod=	!	!	!	!LO:TX:a:t=P:problem=kreska pseudotaktowa:mod=	!	!	!	!	!	!	!
.	.	.	.	4B-\	.	.	.	4G/	.	.	.	.	.	.	.
.	.	.	.	2c\	.	.	.	4A/	.	.	.	2c/	-mi-	.	-mi-
4F\	-mi-	.	-mi-	.	.	.	.	4B-\	.	.	.	.	.	.	.
*	*	*	*	*custos:G	*	*	*	*	*	*	*	*	*	*	*
!LO:TX:a:t=P:problem=kreska pseudotaktowa:mod=	!	!	!	!LO:TX:a:t=P:problem=kreska pseudotaktowa:mod=	!	!	!	!	!	!	!	!	!	!	!
2E-X\	-nus	.	-nus	2G/	-cum	.	-cum	4.c\	.	.	.	2e-X\	-nus	.	-nus
.	.	.	.	.	.	.	.	8c\	mi-	.	mi-	.	.	.	.
!	!	!	!	!LO:LB:g=original	!	!	!	!	!	!	!	!	!	!	!
=14-	=14-	=14-	=14-	=14-	=14-	=14-	=14-	=14-	=14-	=14-	=14-	=14-	=14-	=14-	=14-
!	!	!	!	!	!	!	!	!LO:MO:mod=!null:null	!	!	!	!	!	!	!
!	!	!	!	!	!	!	!	!LO:N:acc=#	!	!	!	!	!	!	!
0.G	te-	.	te-	2.G/	Do-	.	Do-	2Bn\	-n(us)	.	-nus	2d\	te-	.	te-
!	!	!	!	!	!	!	!	!	!	!	!	!LO:TX:a:t=P:problem=kreska pseudotaktowa:mod=	!	!	!
.	.	.	.	.	.	.	.	4.e-X\	Do-	.	Do-	2c/	.	.	.
!	!	!	!	!LO:TX:a:t=P:problem=kreska pseudotaktowa:mod=	!	!	!	!	!	!	!	!	!	!	!
.	.	.	.	4A/	.	.	.	.	.	.	.	.	.	.	.
!	!	!	!	!	!	!	!	!LO:TX:a:t=P:problem=kreska pseudotaktowa:mod=	!	!	!	!	!	!	!
.	.	.	.	.	.	.	.	8e-\	-mi-	.	-mi-	.	.	.	.
!	!	!	!	!LO:TX:t=P:problem=♯ above:mod=	!	!	!	!	!	!	!	!	!	!	!
!	!	!	!	!LO:MO:mod=!null:null	!	!	!	!	!	!	!	!	!	!	!
!	!	!	!	!LO:N:acc=#	!	!	!	!	!	!	!	!	!	!	!
.	.	.	.	4.Bn\	-mi-	.	-mi-	2d\	-n(us)	.	-nus	0g	.	.	.
.	.	.	.	8B\	-nus	.	-nus	.	.	.	.	.	.	.	.
!	!	!	!	!LO:TX:a:t=P:problem=kreska pseudotaktowa:mod=	!	!	!	!	!	!	!	!	!	!	!
.	.	.	.	2e-X\	te-	.	te-	2.c\	te-	.	te-	.	.	.	.
=15-	=15-	=15-	=15-	=15-	=15-	=15-	=15-	=15-	=15-	=15-	=15-	=15-	=15-	=15-	=15-
.	.	.	.	1d	.	.	.	.	.	.	.	.	.	.	.
!	!	!	!	!	!	!	!	!LO:TX:t=P:problem=♯ above:mod=	!	!	!	!	!	!	!
!	!	!	!	!	!	!	!	!LO:MO:mod=!null:null	!	!	!	!	!	!	!
!	!	!	!	!	!	!	!	!LO:N:acc=#	!	!	!	!	!	!	!
.	.	.	.	.	.	.	.	8Bn\L	.	.	.	.	.	.	.
.	.	.	.	.	.	.	.	8A\J	.	.	.	.	.	.	.
!	!	!	!	!	!	!	!	!LO:TX:a:t=P:problem=kreska pseudotaktowa:mod=	!	!	!	!	!	!	!
!	!	!	!	!	!	!	!	!LO:TX:t=P:problem=♯ above:mod=	!	!	!	!	!	!	!
!	!	!	!	!	!	!	!	!LO:MO:mod=!null:null	!	!	!	!	!	!	!
!	!	!	!	!	!	!	!	!LO:N:acc=#	!	!	!	!	!	!	!
!	!	!	!	!	!	!	!	!LO:MO:mod=2B	!	!	!	!	!	!	!
.	.	.	.	.	.	.	.	2Bn\	.	.	.	.	.	.	.
!	!	!	!	!	!	!	!	!	!	!	!	!LO:TX:a:t=P:problem=kreska pseudotaktowa:mod=	!	!	!
2C/	-cu(m),	.	-cum	2c\	-cum	.	-cum	2c\	-cum	.	-cum	1g	-cum	.	-cum
*	*	*	*	*	*	*	*	*	*	*	*	*	*Xij	*	*
1C/	be-	.	be-	4c\	be-	.	be-	4C/	be-	.	be-	.	.	.	.
!	!	!	!	!LO:TX:a:t=P:problem=kreska pseudotaktowa:mod=	!	!	!	!LO:TX:a:t=P:problem=kreska pseudotaktowa:mod=	!	!	!	!	!	!	!
.	.	.	.	4B-y\	.	.	.	4D/	.	.	.	.	.	.	.
=16-	=16-	=16-	=16-	=16-	=16-	=16-	=16-	=16-	=16-	=16-	=16-	=16-	=16-	=16-	=16-
!	!	!	!	!	!	!	!	!LO:SIC:v:s=4E-	!	!	!	!	!	!	!
.	.	.	.	4G\	-ne-	.	.	4E/	-ne-	.	-ne-	0r	.	.	.
.	.	.	.	4A\	.	.	.	4F/	.	.	.	.	.	.	.
!LO:TX:a:t=P:problem=kreska pseudotaktowa:mod=	!	!	!	!	!	!	!	!	!	!	!	!	!	!	!
2BB-/	-ne-	.	-ne-	4.B-\	-di-	.	.	2.G/	-di-	.	-di-	.	.	.	.
!	!	!	!	!LO:TX:a:t=P:problem=kreska pseudotaktowa:mod=	!	!	!	!	!	!	!	!	!	!	!
.	.	.	.	8B-\	cta	.	-ne-	.	.	.	.	.	.	.	.
2.D/	-di-	.	-di-	2.A\	.	.	-di-	.	.	.	.	.	.	.	.
!	!	!	!	!	!	!	!	!LO:TX:b:t=P:problem=♯ below:mod=	!	!	!	!	!	!	!
.	.	.	.	.	.	.	.	8F#X/L	.	.	.	.	.	.	.
.	.	.	.	.	.	.	.	8E/J	.	.	.	.	.	.	.
.	.	.	.	.	.	.	.	4.F#/	.	.	.	.	.	.	.
4D/	-cta	.	-cta	4A\	tu	.	-cta	.	.	.	.	.	.	.	.
!	!	!	!	!	!	!	!	!LO:TX:a:t=P:problem=kreska pseudotaktowa:mod=	!	!	!	!	!	!	!
.	.	.	.	.	.	.	.	8F#/	-cta	.	-cta	.	.	.	.
=17-	=17-	=17-	=17-	=17-	=17-	=17-	=17-	=17-	=17-	=17-	=17-	=17-	=17-	=17-	=17-
!	!	!	!	!LO:TX:a:t=P:problem=kreska pseudotaktowa:mod=	!	!	!	!	!	!	!	!	!	!	!
2GG/	tu,	.	tu	1B-	.	.	tu	2G/	tu	.	tu	2.g\	be-	.	be-
*	*	*	*	*	*	*	*	*	*ij	*	*	*	*	*	*
1G	be-	.	be-	.	.	.	.	4G/	be-	.	be-	.	.	.	.
.	.	.	.	.	.	.	.	4A/	.	.	.	8f\L	.	.	.
!	!	!	!	!	!	!	!	!	!	!	!	!LO:TX:a:t=P:problem=kreska pseudotaktowa:mod=	!	!	!
.	.	.	.	.	.	.	.	.	.	.	.	8eny\J	.	.	.
.	.	.	.	0r	.	.	.	4B-y\	-ne-	.	-ne-	4d\	.	.	.
.	.	.	.	.	.	.	.	4c\	.	.	.	4e\	.	.	.
!LO:TX:a:t=P:problem=kreska pseudotaktowa:mod=	!	!	!	!	!	!	!	!	!	!	!	!	!	!	!
2F\	-ne-	.	-ne-	.	.	.	.	2.d\	-di-	.	-di-	4.f\	-ne-	.	.
!	!	!	!	!	!	!	!	!	!	!	!	!LO:TX:a:t=P:problem=kreska pseudotaktowa:mod=	!	!	!
.	.	.	.	.	.	.	.	.	.	.	.	8f\	-di-	.	-ne-
=18-	=18-	=18-	=18-	=18-	=18-	=18-	=18-	=18-	=18-	=18-	=18-	=18-	=18-	=18-	=18-
2.A\	-di-	.	-di-	.	.	.	.	.	.	.	.	2.e\	.	.	-di-
!	!	!	!	!	!	!	!	!LO:SIC:v:s=8c#i	!	!	!	!	!	!	!
.	.	.	.	.	.	.	.	8c\L	.	.	.	.	.	.	.
*	*	*	*	*	*	*	*	*custos:c	*	*	*	*	*	*	*
!	!	!	!	!	!	!	!	!LO:TX:t=P:problem=♯ above:mod=	!	!	!	!	!	!	!
!	!	!	!	!	!	!	!	!LO:MO:mod=!null:null	!	!	!	!	!	!	!
!	!	!	!	!	!	!	!	!LO:N:acc=#	!	!	!	!	!	!	!
.	.	.	.	.	.	.	.	8Bn\J	.	.	.	.	.	.	.
!	!	!	!	!	!	!	!	!LO:LB:g=original	!	!	!	!	!	!	!
!	!	!	!	!	!	!	!	!LO:SIC:v:s=4.c#i	!	!	!	!	!	!	!
.	.	.	.	.	.	.	.	4.c\	.	.	.	.	.	.	.
4A\	-cta	.	-cta	.	.	.	.	.	.	.	.	4e\	-cta	.	-cta
!	!	!	!	!	!	!	!	!LO:TX:a:t=P:problem=kreska pseudotaktowa:mod=	!	!	!	!	!	!	!
!	!	!	!	!	!	!	!	!LO:SIC:v:s=8c#	!	!	!	!	!	!	!
.	.	.	.	.	.	.	.	8c\	-cta	.	-cta	.	.	.	.
2D/	tu	.	tu	2r	.	.	.	2d\	tu	.	tu	2f\	tu	.	tu
*	*ij	*	*	*	*	*	*	*	*Xij	*	*	*	*ij	*	*
1BB-/	be-	.	be-	1B-\	be-	.	be-	1d\	be-	.	be-	1f\	be-	.	be-
=19-	=19-	=19-	=19-	=19-	=19-	=19-	=19-	=19-	=19-	=19-	=19-	=19-	=19-	=19-	=19-
.	.	.	.	.	.	.	.	.	.	.	.	.	.	.	.
!	!	!	!	!LO:TX:a:t=P:problem=kreska pseudotaktowa:mod=	!	!	!	!	!	!	!	!	!	!	!
2AA/	-ne-	.	-ne-	2c\	-ne-	.	-ne-	4c\	-ne-	.	-ne-	2f\	-ne-	.	-ne-
.	.	.	.	.	.	.	.	2c\	-di-	.	-di-	.	.	.	.
2.BB-/	-di-	.	-di-	2.d\	-di-	.	-di-	.	.	.	.	2.f\	-di-	.	-di-
.	.	.	.	.	.	.	.	8B-y\L	.	.	.	.	.	.	.
.	.	.	.	.	.	.	.	8A\J	.	.	.	.	.	.	.
.	.	.	.	.	.	.	.	4.B-\	.	.	.	.	.	.	.
!LO:TX:a:t=P:problem=kreska pseudotaktowa:mod=	!	!	!	!	!	!	!	!	!	!	!	!	!	!	!
4BB-/	-cta	.	-cta	4d\	-cta	.	-cta	.	.	.	.	4f\	-cta	.	-cta
!	!	!	!	!	!	!	!	!LO:TX:a:t=P:problem=kreska pseudotaktowa:mod=	!	!	!	!	!	!	!
.	.	.	.	.	.	.	.	8B-\	-cta	.	-cta	.	.	.	.
=20-	=20-	=20-	=20-	=20-	=20-	=20-	=20-	=20-	=20-	=20-	=20-	=20-	=20-	=20-	=20-
!LO:SIC:s=2FF	!	!	!	!	!	!	!	!	!	!	!	!LO:TX:a:t=P:problem=kreska pseudotaktowa:mod=	!	!	!
2FF;/	tu	.	tu	2c\	tu	.	tu	4A\	tu	.	tu	1f	tu	.	tu
*	*Xij	*	*	*	*	*	*	*	*	*	*	*	*Xij	*	*
.	.	.	.	.	.	.	.	4c\	in	.	in	.	.	.	.
!	!	!	!	!LO:TX:a:t=P:problem=kreska pseudotaktowa:mod=	!	!	!	!	!	!	!	!	!	!	!
4r	.	.	.	2r	.	.	.	4.d\	Mu-	.	mu-	.	.	.	.
*custos:G	*	*	*	*	*	*	*	*	*	*	*	*	*	*	*
4F\	in	.	in	.	.	.	.	.	.	.	.	.	.	.	.
!	!	!	!	!	!	!	!	!LO:TX:a:t=P:problem=kreska pseudotaktowa:mod=	!	!	!	!	!	!	!
.	.	.	.	.	.	.	.	8c\	.	.	-li-	.	.	.	.
!LO:LB:g=original	!	!	!	!	!	!	!	!	!	!	!	!	!	!	!
4.G\	mu-	.	mu-	1r	.	.	.	4.B-\	.	.	-e-	2r	.	.	.
8F\	-li-	.	-li-	.	.	.	.	8A/	-li-	.	.	.	.	.	.
4E-X\	-e-	.	-e-	.	.	.	.	8G/L	-e-	.	.	4r	.	.	.
.	.	.	.	.	.	.	.	8A/	.	.	.	.	.	.	.
!LO:TX:a:t=P:problem=kreska pseudotaktowa:mod=	!	!	!	!	!	!	!	!	!	!	!	!LO:TX:a:t=P:problem=kreska pseudotaktowa:mod=	!	!	!
4D/	.	.	.	.	.	.	.	8B-/	.	.	.	4f\	in	.	in
!	!	!	!	!	!	!	!	!LO:TX:a:t=P:problem=kreska pseudotaktowa:mod=	!	!	!	!	!	!	!
.	.	.	.	.	.	.	.	8A/J	.	.	.	.	.	.	.
=21-	=21-	=21-	=21-	=21-	=21-	=21-	=21-	=21-	=21-	=21-	=21-	=21-	=21-	=21-	=21-
4.E-\	.	.	.	2r	.	.	.	8G/L	.	.	.	4.g\	mu-	.	mu-
.	.	.	.	.	.	.	.	8A/J	.	.	.	.	.	.	.
.	.	.	.	.	.	.	.	2B-\	.	.	.	.	.	.	.
8F\L	.	.	.	.	.	.	.	.	.	.	.	8f\	-li-	.	-li-
8G\	.	.	.	4r	.	.	.	.	.	.	.	4e-X\	-e-	.	-e-
8A\J	.	.	.	.	.	.	.	.	.	.	.	.	.	.	.
!LO:TX:a:t=P:problem=kreska pseudotaktowa:mod=	!	!	!	!LO:TX:a:t=P:problem=kreska pseudotaktowa:mod=	!	!	!	!LO:TX:a:t=P:problem=kreska pseudotaktowa:mod=	!	!	!	!LO:TX:a:t=P:problem=kreska pseudotaktowa:mod=	!	!	!
4B-\	.	.	.	4f\	in	.	in	4B-\	ri-	.	ri-	4d\	.	.	.
2E-X\	.	.	.	(8e-X\L	mu-	.	mu-	2B-\	-bus	.	-bus	8g\L	.	.	.
.	.	.	.	8d\J)	.	.	.	.	.	.	.	8f\	.	.	.
.	.	.	.	(8c\L	-li-	.	-li-	.	.	.	.	8e-X\	.	.	.
*	*	*	*	*	*	*	*	*	*	*	*	*custos:c	*	*	*
.	.	.	.	8B-\J)	.	.	.	.	.	.	.	8d\J	.	.	.
!	!	!	!	!	!	!	!	!	!	!	!	!LO:LB:g=original	!	!	!
4.F\	.	.	.	4.A/	-e-	.	-e-	4r	.	.	.	4.c/	.	.	.
!	!	!	!	!	!	!	!	!LO:TX:a:t=P:problem=kreska pseudotaktowa:mod=	!	!	!	!	!	!	!
.	.	.	.	.	.	.	.	4c\	in	.	in	.	.	.	.
!LO:TX:a:t=P:problem=kreska pseudotaktowa:mod=	!	!	!	!LO:TX:a:t=P:problem=kreska pseudotaktowa:mod=	!	!	!	!	!	!	!	!LO:TX:a:t=P:problem=kreska pseudotaktowa:mod=	!	!	!
8F\	-ri-	.	-ri-	8A/	-ri-	.	-ri-	.	.	.	.	8c/	-ri-	.	-ri-
=22-	=22-	=22-	=22-	=22-	=22-	=22-	=22-	=22-	=22-	=22-	=22-	=22-	=22-	=22-	=22-
*	*	*	*	*custos:c	*	*	*	*	*	*	*	*	*	*	*
2BB-/	-bus	.	-bus	2B-\	-bus	.	-bus	4.d\	Mu-	.	mu-	2B-/	-bus	.	-bus
.	.	.	.	.	.	.	.	8c\	.	.	-li-	.	.	.	.
!LO:TX:a:t=P:problem=kreska pseudotaktowa:mod=	!	!	!	!LO:LB:g=original	!	!	!	!	!	!	!	!	!	!	!
2r	.	.	.	4r	.	.	.	4B-\	.	.	-e-	4r	.	.	.
*	*	*	*	*	*ij	*	*	*	*	*	*	*	*ij	*	*
!	!	!	!	!LO:TX:a:t=P:problem=kreska pseudotaktowa:mod=	!	!	!	!LO:TX:a:t=P:problem=kreska pseudotaktowa:mod=	!	!	!	!LO:TX:a:t=P:problem=kreska pseudotaktowa:mod=	!	!	!
.	.	.	.	4c\	in	.	in	4A/	-li-	.	.	4f\	in	.	in
1r	.	.	.	8.B-\	mu-	.	mu-	2G/	-e-	.	-ri-	4.g\	mu-	.	mu-
.	.	.	.	16c\	-li-	.	-li-	.	.	.	.	.	.	.	.
.	.	.	.	2d\	-e-	.	-e-	.	.	.	.	.	.	.	.
.	.	.	.	.	.	.	.	.	.	.	.	8f\	-li-	.	-li-
!	!	!	!	!	!	!	!	!LO:TX:a:t=P:problem=kreska pseudotaktowa:mod=	!	!	!	!	!	!	!
!	!	!	!	!	!	!	!	!LO:MO:mod=[2A	!	!	!	!	!	!	!
.	.	.	.	.	.	.	.	[y2A/	-ri-	.	-bus	4.eny\	-e-	.	-e-
!	!	!	!	!LO:TX:a:t=P:problem=kreska pseudotaktowa:mod=	!	!	!	!	!	!	!	!	!	!	!
!	!	!	!	!LO:TX:t=P:problem=♯ above:mod=	!	!	!	!	!	!	!	!	!	!	!
.	.	.	.	4c#X\	.	.	-ri-	.	.	.	.	.	.	.	.
!	!	!	!	!	!	!	!	!	!	!	!	!LO:TX:a:t=P:problem=kreska pseudotaktowa:mod=	!	!	!
.	.	.	.	.	.	.	.	.	.	.	.	8e\	-ri-	.	-ri-
=23-	=23-	=23-	=23-	=23-	=23-	=23-	=23-	=23-	=23-	=23-	=23-	=23-	=23-	=23-	=23-
!	!	!	!	!	!	!	!	!LO:MO:mod=!null:null	!	!	!	!	!	!	!
!	!	!	!	!	!	!	!	!LO:N:xstem:cue	!	!	!	!	!	!	!
*	*ij	*	*	*	*	*	*	*	*	*	*	*	*	*	*
2D/	in	.	in	4d\	-ri-	.	-bus	4A\]	.	.	.	4f\	.	.	-bus
.	.	.	.	4d\	-bus	.	in	4A/	-bus	.	in	4f\	-bus	.	in
*	*	*	*	*	*	*	*	*	*ij	*	*	*	*Xij	*	*
4.E-X\	mu-	.	mu-	8B-\L	in	.	mu-	1G	Mu-	.	mu-	4.g\	.	.	mu-
.	.	.	.	8G\	.	.	.	.	.	.	.	.	.	.	.
.	.	.	.	8A\	.	.	.	.	.	.	.	.	.	.	.
!LO:TX:a:t=P:problem=kreska pseudotaktowa:mod=	!	!	!	!LO:TX:a:t=P:problem=kreska pseudotaktowa:mod=	!	!	!	!	!	!	!	!LO:TX:a:t=P:problem=kreska pseudotaktowa:mod=	!	!	!
8D/	-li-	.	-li-	8B-\J	.	.	.	.	.	.	.	8f\	in	.	-li-
2C/	-e-	.	-e-	4.cny\	mu-	.	.	.	.	.	.	4.e-X\	mu-	.	-e-
.	.	.	.	8c\	-li-	.	-li-	.	.	.	.	8f\	-li-	.	.
!LO:N:acc=#	!	!	!	!	!	!	!	!LO:TX:a:t=P:problem=kreska pseudotaktowa:mod=	!	!	!	!	!	!	!
2BBn/	.	.	.	1d\	-e-	.	-e-	2G/	-li-	.	-li-	4.g\	-e-	.	.
!	!	!	!	!	!	!	!	!	!	!	!	!LO:TX:a:t=P:problem=kreska pseudotaktowa:mod=	!	!	!
.	.	.	.	.	.	.	.	.	.	.	.	8f\	-ri-	.	.
=24-	=24-	=24-	=24-	=24-	=24-	=24-	=24-	=24-	=24-	=24-	=24-	=24-	=24-	=24-	=24-
2.C/	.	.	.	.	.	.	.	2.G/	-e-	.	-e-	2.e-X\	.	.	.
.	.	.	.	2c\	-ri-	.	-ri-	.	.	.	.	.	.	.	.
4C/	ri-	.	ri-	.	.	.	.	4G/	-ri-	.	-ri-	4e-\	bus	.	-ri-
*	*	*	*	*	*	*	*	*custos:G	*	*	*	*	*	*	*
!LO:TX:a:t=P:problem=kreska pseudotaktowa:mod=	!	!	!LO:MO:mod=!null:null	!	!	!	!	!LO:TX:a:t=P:problem=kreska pseudotaktowa:mod=	!	!	!	!LO:TX:a:t=P:problem=kreska pseudotaktowa:mod=	!	!	!
!	!	!	!	!LO:N:acc=#	!	!	!	!	!	!	!	!	!	!	!
1GG	-bus	.	-bus	1Bn	-bus	.	-bus	1G/	-bus	.	-bus	1d	.	.	-bus
*	*Xij	*	*	*	*Xij	*	*	*	*Xij	*	*	*	*	*	*
!	!	!	!	!	!	!	!	!LO:PB:g=original	!	!	!	!	!	!	!
!LO:MO:mod==25||	!	!	!	!LO:MO:mod==25||	!	!	!	!LO:MO:mod==25||	!	!	!	!LO:MO:mod==25||	!	!	!
=25-	=25-	=25-	=25-	=25-	=25-	=25-	=25-	=25-	=25-	=25-	=25-	=25-	=25-	=25-	=25-
*M3/1	*	*	*	*M3/1	*	*	*	*M3/1	*	*	*	*M3/1	*	*	*
!LO:TX:a:t=P:problem=kreska pseudotaktowa:mod=	!	!	!	!LO:TX:a:t=P:problem=kreska pseudotaktowa:mod=	!	!	!	!	!	!	!	!	!	!	!
!LO:N:vis=0	!	!	!	!LO:N:vis=0	!	!	!	!	!	!	!	!LO:TX:t=P:problem=podział dwudzielny brevis:mod=	!	!	!
0.r	.	.	.	0.r	.	.	.	1G	et	.	et	1g	et	.	et
.	.	.	.	.	.	.	.	1B-	be-	.	be-	1d	be-	.	be-
!	!	!	!	!	!	!	!	!LO:TX:a:t=P:problem=kreska pseudotaktowa:mod=	!	!	!	!LO:TX:a:t=P:problem=kreska pseudotaktowa:mod=	!	!	!
.	.	.	.	.	.	.	.	1c	-ne-	.	-ne-	1eny	-ne-	.	-ne-
=26-	=26-	=26-	=26-	=26-	=26-	=26-	=26-	=26-	=26-	=26-	=26-	=26-	=26-	=26-	=26-
!	!	!	!	!	!	!	!	!LO:TX:a:t=P:problem=kreska pseudotaktowa:mod=	!	!	!	!	!	!	!
1D	et	.	et	1d	et	.	et	0.d	-di-	.	-di-	0f	-di-	.	-di-
1F	be-	.	be-	1A	be-	.	be-	.	.	.	.	.	.	.	.
!LO:TX:a:t=P:problem=kreska pseudotaktowa:mod=	!	!	!	!LO:TX:a:t=P:problem=kreska pseudotaktowa:mod=	!	!	!	!	!	!	!	!LO:TX:a:t=P:problem=kreska pseudotaktowa:mod=	!	!	!
1G	-ne-	.	-ne-	1B-ny	-ne-	.	-ne-	.	.	.	.	1e	-ctus	.	-ctus
=27-	=27-	=27-	=27-	=27-	=27-	=27-	=27-	=27-	=27-	=27-	=27-	=27-	=27-	=27-	=27-
1.A	-di-	.	-di-	1.A	-di-	.	-di-	1c#X	-ctus	.	-ctus	1.e	frŭ-	.	frŭ-
.	.	.	.	.	.	.	.	2c#\	fru-	.	fru-	.	.	.	.
2A\	-ct(us)	.	-ctus	2A/	-ctus	.	-ctus	2d\	.	.	-ctus	2f\	ctus	.	ctus
!	!	!	!	!	!	!	!	!LO:TX:a:t=P:problem=kreska pseudotaktowa:mod=	!	!	!	!LO:TX:a:t=P:problem=kreska pseudotaktowa:mod=	!	!	!
2.E\	fru-	.	fru-	2.G/	fru-	.	fru-	1eny	-ctus	.	ven-	1g	ven-	.	ven-
*custos:F	*	*	*	*	*	*	*	*	*	*	*	*	*	*	*
!	!	!	!	!LO:TX:a:t=P:problem=kreska pseudotaktowa:mod=	!	!	!	!	!	!	!	!	!	!	!
4E\	-ct(us)	.	-ctus	4G/	-ct(us)	.	-ctus	.	.	.	.	.	.	.	.
!LO:LB:g=original	!	!	!	!	!	!	!	!	!	!	!	!	!	!	!
=28-	=28-	=28-	=28-	=28-	=28-	=28-	=28-	=28-	=28-	=28-	=28-	=28-	=28-	=28-	=28-
2.F\	ven-	.	ven-	2.A/	ven-	.	ven-	1d	ven-	.	-tris	1f	-tris	.	-tris
4G\	-tris	.	-tris	4A/	-tris	.	-tris	.	.	.	.	.	.	.	.
*	*	*	*	*	*	*	*	*lig	*	*	*	*	*	*	*
!LO:TX:a:t=P:problem=kreska pseudotaktowa:mod=	!	!	!	!	!	!	!	!	!	!	!	!	!	!	!
0A	tu-	.	tu-	0A	tu-	.	tu-	1d	-tris	.	tu-	0e	tu-	.	tu-
!	!	!	!	!	!	!	!	!LO:TX:a:t=P:problem=kreska pseudotaktowa:mod=	!	!	!	!	!	!	!
!	!	!	!	!	!	!	!	!LO:TX:t=P:problem=♯ above:mod=	!	!	!	!	!	!	!
.	.	.	.	.	.	.	.	1c#X	tu-	.	.	.	.	.	.
*	*	*	*	*	*	*	*	*Xlig	*	*	*	*	*	*	*
=29-	=29-	=29-	=29-	=29-	=29-	=29-	=29-	=29-	=29-	=29-	=29-	=29-	=29-	=29-	=29-
*	*	*	*	*	*	*	*	*	*	*	*	*custos:g	*	*	*
!LO:TX:a:t=P:problem=kreska pseudotaktowa:mod=	!	!	!	!LO:TX:a:t=P:problem=kreska pseudotaktowa:mod=	!	!	!	!LO:TX:a:t=P:problem=kreska pseudotaktowa:mod=	!	!	!	!LO:TX:a:t=P:problem=kreska pseudotaktowa:mod=	!	!	!
0.D	-i	.	-i	0.A	-i	.	-i	0.d	-i	.	-i	0.f#X	-i	.	-i
!	!	!	!	!	!	!	!	!	!	!	!	!LO:PB:g=original	!	!	!
=30-	=30-	=30-	=30-	=30-	=30-	=30-	=30-	=30-	=30-	=30-	=30-	=30-	=30-	=30-	=30-
!LO:MO:mod=!null:null	!	!	!	!	!	!	!	!	!	!	!	!	!	!	!
!LO:N:acc=#	!	!	!	!	!	!	!	!	!	!	!	!	!	!	!
0BBn	Je-	.	Je-	0G	Je-	.	Je-	0d	Je-	.	Je-	1r	.	.	.
.	.	.	.	.	.	.	.	.	.	.	.	1.g	Je-	.	Je-
*	*	*	*	*custos:G	*	*	*	*	*	*	*	*	*	*	*
!	!	!	!	!LO:TX:a:t=P:problem=kreska pseudotaktowa:mod=	!	!	!	!	!	!	!	!	!	!	!
!	!	!	!	!	!	!	!	!LO:TX:a:t=P:problem=kreska pseudotaktowa:mod=	!	!	!	!	!	!	!
1BB	-sus	.	-sus	1G	-ſus	.	-sus	1d	-sus	.	-sus	.	.	.	.
!	!	!	!	!	!	!	!	!	!	!	!	!LO:TX:a:t=P:problem=kreska pseudotaktowa:mod=	!	!	!
.	.	.	.	.	.	.	.	.	.	.	.	2fny\	-ſus	.	-sus
!	!	!	!	!LO:PB:g=original	!	!	!	!	!	!	!	!	!	!	!
=31-	=31-	=31-	=31-	=31-	=31-	=31-	=31-	=31-	=31-	=31-	=31-	=31-	=31-	=31-	=31-
0.C	Chri-	.	Chri-	0.G	Chri-	.	Chri-	1d	Chri-	.	Chri-	0.e-X	Chri-	.	Chri-
.	.	.	.	.	.	.	.	2c\ny	.	.	.	.	.	.	.
!	!	!	!	!	!	!	!	!LO:SIC:s=2Bni	!	!	!	!	!	!	!
.	.	.	.	.	.	.	.	2B-\	.	.	.	.	.	.	.
.	.	.	.	.	.	.	.	1c	.	.	.	.	.	.	.
=32-	=32-	=32-	=32-	=32-	=32-	=32-	=32-	=32-	=32-	=32-	=32-	=32-	=32-	=32-	=32-
!LO:TX:a:t=P:problem=kreska pseudotaktowa:mod=	!	!	!	!LO:TX:a:t=P:problem=kreska pseudotaktowa:mod=	!	!	!	!LO:TX:a:t=P:problem=kreska pseudotaktowa:mod=	!	!	!	!	!	!	!
!	!	!	!	!	!	!	!	!LO:MO:mod=!null:null	!	!	!	!	!	!	!
!	!	!	!	!	!	!	!	!LO:N:acc=#	!	!	!	!LO:TX:a:t=P:problem=kreska pseudotaktowa:mod=	!	!	!
0.GG	-ſtus	.	-stus.	0.G	-ſt(us).	.	-stus.	0.Bn	-ſtus.	.	-stus.	0.d	-ſtus	.	-stus.
=33-	=33-	=33-	=33-	=33-	=33-	=33-	=33-	=33-	=33-	=33-	=33-	=33-	=33-	=33-	=33-
!	!	!	!	!	!	!	!	!LO:MO:mod=!null:null	!	!	!	!	!	!	!
!LO:N:vis=00	!	!	!	!	!	!	!	!LO:N:acc=#	!	!	!	!	!	!	!
00.r	.	.	.	1G	San-	.	San-	1Bn	San-	.	San-	1g	San-	.	San-
!	!	!	!	!	!	!	!	!LO:MO:mod=!null:null	!	!	!	!	!	!	!
!	!	!	!	!	!	!	!	!LO:N:acc=#	!	!	!	!	!	!	!
.	.	.	.	1c	-cta	.	-cta	1en	cta	.	cta	1.g	-cta	.	-cta
!	!	!	!	!LO:TX:a:t=P:problem=kreska pseudotaktowa:mod=	!	!	!	!LO:TX:a:t=P:problem=kreska pseudotaktowa:mod=	!	!	!	!	!	!	!
.	.	.	.	1B-	Ma-	.	Ma-	1d	Ma-	.	Ma-	.	.	.	.
!	!	!	!	!	!	!	!	!	!	!	!	!LO:TX:a:t=P:problem=kreska pseudotaktowa:mod=	!	!	!
.	.	.	.	.	.	.	.	.	.	.	.	2g\	Ma-	.	Ma-
=34-	=34-	=34-	=34-	=34-	=34-	=34-	=34-	=34-	=34-	=34-	=34-	=34-	=34-	=34-	=34-
.	.	.	.	0A	-ri	.	-ri	0f	-ri-	.	-ri-	0a	-ri-	.	-ri-
*	*	*	*	*	*	*	*	*custos:d	*	*	*	*	*	*	*
!	!	!	!	!LO:TX:a:t=P:problem=kreska pseudotaktowa:mod=	!	!	!	!LO:TX:a:t=P:problem=kreska pseudotaktowa:mod=	!	!	!	!	!	!	!
!	!	!	!	!	!	!	!	!	!	!	!	!LO:TX:a:t=P:problem=kreska pseudotaktowa:mod=	!	!	!
.	.	.	.	1B-	-a	.	-a	1d	-a	.	-a	1f	-a	.	-a
!	!	!	!	!	!	!	!	!LO:LB:g=original	!	!	!	!	!	!	!
=35-	=35-	=35-	=35-	=35-	=35-	=35-	=35-	=35-	=35-	=35-	=35-	=35-	=35-	=35-	=35-
!LO:N:vis=00	!	!	!	!	!	!	!	!	!	!	!	!	!	!	!
00.r	.	.	.	1B-	Ma-	.	Ma-	1d	San-	[[o-	San-	1f	San-	[[o-	San-
.	.	.	.	1.c	-ter	.	-ter	1.c	-cta	-ra	-cta	1.eny	-cta	-ra	-cta
!	!	!	!	!LO:TX:a:t=P:problem=kreska pseudotaktowa:mod=	!	!	!	!LO:TX:a:t=P:problem=kreska pseudotaktowa:mod=	!	!	!	!LO:TX:a:t=P:problem=kreska pseudotaktowa:mod=	!	!	!
.	.	.	.	2A/	.	.	.	2c\	Ma-	pro	Ma-	2f\	Ma-	.	Ma-
=36-	=36-	=36-	=36-	=36-	=36-	=36-	=36-	=36-	=36-	=36-	=36-	=36-	=36-	=36-	=36-
!	!	!	!	!	!	!	!	!LO:MO:mod=!null:null	!	!	!	!	!	!	!
!	!	!	!	!	!	!	!	!LO:N:acc=#	!	!	!	!	!	!	!
.	.	.	.	[>0.G	De-	.	De-	1Bn	-ri-	no-	-ri-	1g	-ri-	pro	-ri-
!	!	!	!	!	!	!	!	!LO:MO:mod=!null:null	!	!	!	!	!	!	!
!	!	!	!	!	!	!	!	!LO:N:acc=#	!	!	!	!	!	!	!
!	!	!	!	!	!	!	!	!LO:SIC:s=1B	!	!	!	!	!	!	!
.	.	.	.	.	.	.	.	1Bn	-a	-bis	-a	1d	-a	no-	-a
!	!	!	!	!	!	!	!	!LO:TX:a:t=P:problem=kreska pseudotaktowa:mod=	!	!	!	!LO:TX:a:t=P:problem=kreska pseudotaktowa:mod=	!	!	!
.	.	.	.	.	.	.	.	1c	Ma-	pro	Ma-	1e-X	Ma-	-bis	Ma-
=37-	=37-	=37-	=37-	=37-	=37-	=37-	=37-	=37-	=37-	=37-	=37-	=37-	=37-	=37-	=37-
!LO:TX:a:t=P:problem=kreska pseudotaktowa:mod=	!	!	!	!	!	!	!	!	!	!	!	!	!	!	!
!LO:N:vis=00	!	!	!	!	!	!	!	!	!	!	!	!	!	!	!
00.r	.	.	.	0.G]	.	.	.	1c	-ter	no-	-ter	1e-	-ter	pro	-ter
!	!	!	!	!	!	!	!	!LO:TX:t=P:problem=♯ above:mod=	!	!	!	!	!	!	!
!	!	!	!	!	!	!	!	!LO:MO:mod=!null:null	!	!	!	!	!	!	!
!	!	!	!	!	!	!	!	!LO:N:acc=#	!	!	!	!	!	!	!
.	.	.	.	.	.	.	.	2Bni\	De-	.	De-	2d\	.	no-	De-
.	.	.	.	.	.	.	.	2A\	.	.	.	2c\	.	.	.
!	!	!	!	!	!	!	!	!LO:MO:mod=!null:null	!	!	!	!	!	!	!
!	!	!	!	!	!	!	!	!LO:N:acc=#	!	!	!	!LO:TX:a:t=P:problem=kreska pseudotaktowa:mod=	!	!	!
.	.	.	.	.	.	.	.	1Bni	.	.	.	1d	De-	.	.
=38-	=38-	=38-	=38-	=38-	=38-	=38-	=38-	=38-	=38-	=38-	=38-	=38-	=38-	=38-	=38-
!	!	!	!	!LO:TX:a:t=P:problem=kreska pseudotaktowa:mod=	!	!	!	!LO:TX:a:t=P:problem=kreska pseudotaktowa:mod=	!	!	!	!LO:TX:a:t=P:problem=kreska pseudotaktowa:mod=	!	!	!
!	!	!	!	!	!	!	!	!	!	!	!	!LO:MO:mod=!null:null	!	!	!
!	!	!	!	!	!	!	!	!	!	!	!	!LO:N:acc=x	!	!	!
!	!	!	!	!	!	!	!	!	!	!	!	!LO:MO:mod=!null:null	!	!	!
!	!	!	!	!	!	!	!	!	!	!	!	!LO:N:vis=0..	!	!	!
.	.	.	.	0.C	-i	.	-i	0.c	-i	-bis]]	-i	0.en	-i	-bis	-i
=39-	=39-	=39-	=39-	=39-	=39-	=39-	=39-	=39-	=39-	=39-	=39-	=39-	=39-	=39-	=39-
!	!	!	!	!LO:N:vis=00	!	!	!	!	!	!	!	!	!	!	!
1C	San-	.	San-	00.r	.	.	.	1e	San-	.	San-	1g	San-	O-	San-
1C	-cta	.	-cta	.	.	.	.	1e	-cta	.	-cta	1.a	-cta	-ra	-cta
!LO:TX:a:t=P:problem=kreska pseudotaktowa:mod=	!	!	!	!	!	!	!	!LO:TX:a:t=P:problem=kreska pseudotaktowa:mod=	!	!	!	!	!	!	!
1C	Ma-	.	Ma-	.	.	.	.	1e	Ma-	.	Ma-	.	.	.	.
!	!	!	!	!	!	!	!	!	!	!	!	!LO:TX:a:t=P:problem=kreska pseudotaktowa:mod=	!	!	!
.	.	.	.	.	.	.	.	.	.	.	.	2g\	Ma-	pro	Ma-
=40-	=40-	=40-	=40-	=40-	=40-	=40-	=40-	=40-	=40-	=40-	=40-	=40-	=40-	=40-	=40-
!	!	!	!	!	!	!	!	!	!	!	!	!LO:TX:a:t=P:problem=kreska pseudotaktowa:mod=	!	!	!
0D	-ri-	.	-ri-	.	.	.	.	0f	-ri-	.	-ri-	0.f	-ri-	no-	-ri-
!LO:TX:a:t=P:problem=kreska pseudotaktowa:mod=	!	!	!	!	!	!	!	!LO:TX:a:t=P:problem=kreska pseudotaktowa:mod=	!	!	!	!	!	!	!
1BB-ny	-a	.	-a	.	.	.	.	1d	-a	.	-a	.	.	.	.
=41-	=41-	=41-	=41-	=41-	=41-	=41-	=41-	=41-	=41-	=41-	=41-	=41-	=41-	=41-	=41-
!	!	!	!	!LO:N:vis=0	!	!	!	!	!	!	!	!	!	!	!
1BB-	Ma-	.	Ma-	0.r	.	.	.	1d	Ma-	[[O-	Ma-	0f	-a	-bis	-a
1.AA	ter	[[o-	ter	.	.	.	.	1.c	-ter	-ra	-ter	.	.	.	.
*	*	*	*	*	*	*	*	*	*	*	*	*	*	*ij	*
.	.	.	.	.	.	.	.	.	.	.	.	1f	Ma-	o-	Ma-
!LO:TX:a:t=P:problem=kreska pseudotaktowa:mod=	!	!	!	!	!	!	!	!	!	!	!	!	!	!	!
2BB-/	Ma-	-ra	Ma-	.	.	.	.	2d\	Ma-	pro	Ma-	.	.	.	.
=42-	=42-	=42-	=42-	=42-	=42-	=42-	=42-	=42-	=42-	=42-	=42-	=42-	=42-	=42-	=42-
!	!	!	!	!	!	!	!	!LO:TX:a:t=P:problem=kreska pseudotaktowa:mod=	!	!	!	!	!	!	!
!LO:MO:mod=0.C	!	!	!	!	!	!	!	!LO:MO:mod=0.G	!	!	!	!	!	!	!
[>0.C	-ter	pro	-ter	1c	Ma-	[[O-	Ma-	(<0.G	-ter	no-	-ter	0e	-ter	-ra	-ter
.	.	.	.	1.B-	-ter	-ra	-ter	.	.	.	.	.	.	.	.
*	*	*	*	*	*	*	*	*	*	*	*	*custos:f	*	*	*
!	!	!	!	!	!	!	!	!	!	!	!	!LO:TX:a:t=P:problem=kreska pseudotaktowa:mod=	!	!	!
.	.	.	.	.	.	.	.	.	.	.	.	1e	Ma-	pro	Ma-
!	!	!	!	!LO:TX:a:t=P:problem=kreska pseudotaktowa:mod=	!	!	!	!	!	!	!	!	!	!	!
.	.	.	.	2c\	Ma-	.	Ma-	.	.	.	.	.	.	.	.
!	!	!	!	!	!	!	!	!	!	!	!	!LO:LB:g=original	!	!	!
=43-	=43-	=43-	=43-	=43-	=43-	=43-	=43-	=43-	=43-	=43-	=43-	=43-	=43-	=43-	=43-
!LO:MO:mod=0.C	!	!	!	!	!	!	!	!LO:MO:mod=0.c	!	!	!	!	!	!	!
0.C]	De-	no-	De-	1A	-ter	pro	-ter	(0.c)	De-	.	De-	0f	-ter	no-	-ter
.	.	.	.	0G	De-	no-	De-	.	.	.	.	.	.	.	.
.	.	.	.	.	.	.	.	.	.	.	.	1e	De-	.	De-
=44-	=44-	=44-	=44-	=44-	=44-	=44-	=44-	=44-	=44-	=44-	=44-	=44-	=44-	=44-	=44-
!LO:TX:a:t=P:problem=kreska pseudotaktowa:mod=	!	!	!	!	!	!	!	!LO:MO:mod=0.c	!	!	!	!	!	!	!
0.FF	-i	-bis]]	-i.	0.A	-i	-bis]]	-i.	0.c)	-i	-bis]]	-i.	0.f	-i	-bis]]	-i.
*	*	*	*	*	*	*	*	*	*	*	*	*	*	*Xij	*
!LO:MO:mod==45||	!	!	!	!LO:MO:mod==45||	!	!	!	!LO:MO:mod==45||	!	!	!	!LO:MO:mod==45||	!	!	!
=45-	=45-	=45-	=45-	=45-	=45-	=45-	=45-	=45-	=45-	=45-	=45-	=45-	=45-	=45-	=45-
*M2/1	*	*	*	*M2/1	*	*	*	*M2/1	*	*	*	*M2/1	*	*	*
*met(c|)	*	*	*	*met(c|)	*	*	*	*met(c|)	*	*	*	*met(c|)	*	*	*
*mmet(c|)	*	*	*	*mmet(c|)	*	*	*	*mmet(c|)	*	*	*	*mmet(c|)	*	*	*
!	!	!	!	!	!	!	!	!	!	!	!	!LO:TX:t=P:problem=♯ above:mod=	!	!	!
4D/	O-	.	O-	4A/	O-	.	O-	4d\	O-	.	O-	4f#\	O-	.	O-
8D/	-ra	.	-ra	8A/	-ra	.	-ra	8d\	-ra	.	-ra	8f#\	-ra	.	-ra
8D/	pro	.	pro	8A/	pro	.	pro	8d\	pro	.	pro	8f#\	pro	.	pro
4.D/	no-	.	no-	4.A/	no-	.	no-	4.d\	no-	.	no-	4.f#\	no-	.	no-
*custos:GG	*	*	*	*custos:B	*	*	*	*custos:d	*	*	*	*	*	*	*
!LO:TX:a:t=P:problem=kreska pseudotaktowa:mod=	!	!	!	!LO:TX:a:t=P:problem=kreska pseudotaktowa:mod=	!	!	!	!LO:TX:a:t=P:problem=kreska pseudotaktowa:mod=	!	!	!	!LO:TX:a:t=P:problem=kreska pseudotaktowa:mod=	!	!	!
8D/	bis	.	bis	8A/	-bis	.	-bis	8d\	-bis	.	-bis	8f#\	-bis	.	-bis
!LO:LB:g=original	!	!	!	!LO:LB:g=original	!	!	!	!LO:LB:g=original	!	!	!	!	!	!	!
2GG/	pec-	.	pec-	4.B-\	pec-	.	pec-	2.d\	pec-	.	pec-	2g\	pec-	.	pec-
.	.	.	.	8B-\	-ca-	.	-ca-	.	.	.	.	.	.	.	.
!	!	!	!	!LO:TX:a:t=P:problem=kreska pseudotaktowa:mod=	!	!	!	!	!	!	!	!LO:TX:a:t=P:problem=kreska pseudotaktowa:mod=	!	!	!
2FF#X/	-ca-	.	-ca-	2.A/	-to-	.	-to-	.	.	.	.	2d\	-ca-	.	-ca-
!	!	!	!	!	!	!	!	!LO:TX:a:t=P:problem=kreska pseudotaktowa:mod=	!	!	!	!	!	!	!
.	.	.	.	.	.	.	.	4c\	-ca-	.	-ca-	.	.	.	.
=46-	=46-	=46-	=46-	=46-	=46-	=46-	=46-	=46-	=46-	=46-	=46-	=46-	=46-	=46-	=46-
2.GG/	-to-	.	-to-	.	.	.	.	2.B-\	-to-	.	-to-	2.d\	-to-	.	-to-
.	.	.	.	8G/L	.	.	.	.	.	.	.	.	.	.	.
.	.	.	.	8Fny/J	.	.	.	.	.	.	.	.	.	.	.
.	.	.	.	4.G/	.	.	.	.	.	.	.	.	.	.	.
4GG/	-ri-	.	-ri-	.	.	.	.	4B-\	-ri-	.	-ri-	4d\	-ri-	.	-ri-
.	.	.	.	8G/	-ri-	.	-ri-	.	.	.	.	.	.	.	.
!LO:TX:a:t=P:problem=kreska pseudotaktowa:mod=	!	!	!	!LO:TX:a:t=P:problem=kreska pseudotaktowa:mod=	!	!	!	!LO:TX:a:t=P:problem=kreska pseudotaktowa:mod=	!	!	!	!LO:TX:a:t=P:problem=kreska pseudotaktowa:mod=	!	!	!
1D	-bus	.	-bus	1F	-bus	.	-bus	1A	-bus	.	-bus	1d	-b(us)	.	-bus
=47-	=47-	=47-	=47-	=47-	=47-	=47-	=47-	=47-	=47-	=47-	=47-	=47-	=47-	=47-	=47-
4r	.	.	.	4r	.	.	.	4r	.	.	.	4r	.	.	.
4BB-/	nunc	.	nunc	4B-\	nunc	.	nunc	4d\	nunc	.	nunc	4fny\	nunc	.	nunc
!	!	!	!	!	!	!	!	!	!	!	!	!LO:TX:t=P:problem=♯ above:mod=	!	!	!
4.AA/	et	.	et	4c\	et	.	et	4.c\	et	.	et	4.f#X\	et	.	et
!	!	!	!	!LO:TX:a:t=P:problem=kreska pseudotaktowa:mod=	!	!	!	!	!	!	!	!	!	!	!
.	.	.	.	4A\	in	.	in	.	.	.	.	.	.	.	.
!LO:TX:a:t=P:problem=kreska pseudotaktowa:mod=	!	!	!	!	!	!	!	!LO:TX:a:t=P:problem=kreska pseudotaktowa:mod=	!	!	!	!LO:TX:a:t=P:problem=kreska pseudotaktowa:mod=	!	!	!
8AA/	in	.	in	.	.	.	.	8c\	in	.	in	8f#\	in	.	in
2GG/	ho-	.	ho-	2B-\	ho-	.	ho-	2d\	.	.	ho-	4.g\	ho-	.	ho-
.	.	.	.	.	.	.	.	.	.	.	.	8g\	-ra	.	-ra
!	!	!	!	!LO:TX:a:t=P:problem=kreska pseudotaktowa:mod=	!	!	!	!	!	!	!	!	!	!	!
2FF#X/	ra	.	ra	2A/	.	.	-ra	2d\	ho-	.	-ra	1a\	mor-	.	mor-
=48-	=48-	=48-	=48-	=48-	=48-	=48-	=48-	=48-	=48-	=48-	=48-	=48-	=48-	=48-	=48-
!LO:TX:a:t=P:problem=kreska pseudotaktowa:mod=	!	!	!	!	!	!	!	!	!	!	!	!	!	!	!
!LO:TX:t=P:problem=alternatywna melodia oktawę wyżej (4 dźwięki):mod=	!	!	!	!	!	!	!	!LO:TX:a:t=P:problem=kreska pseudotaktowa:mod=	!	!	!	!	!	!	!
1GG	mor-	.	mor-	1B-	-ra	.	mor-	1d	-ra	.	mor-	.	.	.	.
!	!	!	!	!	!	!	!	!	!	!	!	!LO:TX:a:t=P:problem=kreska pseudotaktowa:mod=	!	!	!
.	.	.	.	.	.	.	.	.	.	.	.	2g\	.	.	.
1FFny	-tis	.	-tis	2A/	mor-	.	-tis	2d\	mor-	.	-tis	2a\	.	.	.
.	.	.	.	1B-\	-tis	.	no-	1d\	-tis	.	no-	2d\	-tis	.	-tis
=49-	=49-	=49-	=49-	=49-	=49-	=49-	=49-	=49-	=49-	=49-	=49-	=49-	=49-	=49-	=49-
1EE-X	no-	.	no-	.	.	.	.	.	.	.	.	1g	no-	.	no-
.	.	.	.	4A/	no-	.	.	2c\	no-	.	.	.	.	.	.
.	.	.	.	4G/	.	.	.	.	.	.	.	.	.	.	.
!	!	!	!	!	!	!	!	!	!	!	!	!LO:TX:a:t=P:problem=kreska pseudotaktowa:mod=	!	!	!
1DD	-ſtrae	.	-strae.	1A	-ſtrae.	.	-strae.	1d	-ſtrae	.	-strae.	1f#X	-ſtrae	.	-strae.
!LO:MO:mod==50||	!	!	!	!LO:MO:mod==50||	!	!	!	!LO:MO:mod==50||	!	!	!	!LO:MO:mod==50||	!	!	!
=50-	=50-	=50-	=50-	=50-	=50-	=50-	=50-	=50-	=50-	=50-	=50-	=50-	=50-	=50-	=50-
*M3/1	*	*	*	*M3/1	*	*	*	*M3/1	*	*	*	*M3/1	*	*	*
!	!	!	!	!	!	!	!	!	!	!	!	!LO:MO:mod=!null:null	!	!	!
!	!	!	!	!	!	!	!	!	!	!	!	!LO:N:acc=-	!	!	!
0BB-	A-	.	A-	0d	A-	.	A-	1r	.	.	.	0fn	A-	.	A-
.	.	.	.	.	.	.	.	1B-	A-	.	A-	.	.	.	.
!LO:TX:a:t=P:problem=kreska pseudotaktowa:mod=	!	!	!	!LO:TX:a:t=P:problem=kreska pseudotaktowa:mod=	!	!	!	!LO:TX:a:t=P:problem=kreska pseudotaktowa:mod=	!	!	!	!LO:TX:a:t=P:problem=kreska pseudotaktowa:mod=	!	!	!
1F	.	.	.	1c	.	.	men	1A	-men	.	-men	1f	-men	.	-men
=51-	=51-	=51-	=51-	=51-	=51-	=51-	=51-	=51-	=51-	=51-	=51-	=51-	=51-	=51-	=51-
*lig	*	*	*	*lig	*	*	*	*	*ij	*	*	*lig	*ij	*	*
1G	.	.	.	1B-	-men	.	A-	0G	A-	.	A-	1d	A-	.	A-
1C	.	.	.	1c	.	.	.	.	.	.	.	1e-X	.	.	.
*Xlig	*	*	*	*Xlig	*	*	*	*	*	*	*	*Xlig	*	*	*
*	*	*	*	*	*	*	*	*	*	*	*	*custos:d	*	*	*
!LO:TX:a:t=P:problem=kreska pseudotaktowa:mod=	!	!	!	!LO:TX:a:t=P:problem=kreska pseudotaktowa:mod=	!	!	!	!LO:TX:a:t=P:problem=kreska pseudotaktowa:mod=	!	!	!	!LO:TX:a:t=P:problem=kreska pseudotaktowa:mod=	!	!	!
!	!	!	!	!	!	!	!	!LO:TX:t=P:problem=♯ above:mod=	!	!	!	!	!	!	!
1D	.	.	.	1A	A-	.	-men	1F#X	-men	.	-men	1d	-men	.	-men
*	*	*	*	*	*	*	*	*	*	*	*	*	*Xij	*	*
!	!	!	!	!	!	!	!	!	!	!	!	!LO:LB:g=original	!	!	!
=52-	=52-	=52-	=52-	=52-	=52-	=52-	=52-	=52-	=52-	=52-	=52-	=52-	=52-	=52-	=52-
1GG	.	.	.	1B-	.	.	A-	1G	A-	.	A-	0d	A-	.	A-
*	*	*	*	*	*	*	*	*lig	*	*	*	*	*	*	*
1GG,<	-men	.	-men	1B-	-men	.	-men	1G	-men	.	-men	.	.	.	.
*	*	*	*	*	*ij	*	*	*	*Xij	*	*	*	*	*	*
!LO:TX:a:t=P:problem=kreska pseudotaktowa:mod=	!	!	!	!LO:TX:a:t=P:problem=kreska pseudotaktowa:mod=	!	!	!	!	!	!	!	!LO:TX:a:t=P:problem=kreska pseudotaktowa:mod=	!	!	!
!	!	!	!	!	!	!	!	!LO:TX:b:t=P:problem=♯ below:mod=	!	!	!	!	!	!	!
1D	A-	.	A-	1A	A-	.	A-	1F#X	.	.	.	1d	-men	.	-men
*	*	*	*	*	*	*	*	*Xlig	*	*	*	*	*	*	*
=53-	=53-	=53-	=53-	=53-	=53-	=53-	=53-	=53-	=53-	=53-	=53-	=53-	=53-	=53-	=53-
*	*	*	*	*	*	*	*	*	*	*	*	*	*ij	*	*
2GG/	-men	.	-men	(2B-\	.	.	.	2G/	A-	.	A-	00.d	A-	.	A-
2AA/	.	.	.	2c\)	.	.	.	4Fny/	.	.	.	.	.	.	.
.	.	.	.	.	.	.	.	4E/	.	.	.	.	.	.	.
*	*ij	*	*	*	*	*	*	*	*	*	*	*	*	*	*
2BB-/	A-	.	A-	2d\	men	.	men	2D/	.	.	.	.	.	.	.
2C/	.	.	.	4c\	.	.	.	2E/	.	.	.	.	.	.	.
.	.	.	.	4B-\	.	.	.	.	.	.	.	.	.	.	.
*custos:GG	*	*	*	*	*	*	*	*	*	*	*	*	*	*	*
!LO:TX:a:t=P:problem=kreska pseudotaktowa:mod=	!	!	!	!	!	!	!	!	!	!	!	!	!	!	!
!	!	!	!	!LO:TX:a:t=P:problem=kreska pseudotaktowa:mod=	!	!	!	!	!	!	!	!	!	!	!
1D	.	.	.	1A	A-	.	A-	2F/	.	.	.	.	.	.	.
.	.	.	.	.	.	.	.	2D/	-men	.	-men	.	.	.	.
!LO:LB:g=original	!	!	!	!	!	!	!	!	!	!	!	!	!	!	!
=54-	=54-	=54-	=54-	=54-	=54-	=54-	=54-	=54-	=54-	=54-	=54-	=54-	=54-	=54-	=54-
*	*	*	*	*	*	*	*	*	*ij	*	*	*	*	*	*
0GG	.	.	.	0G	.	.	.	0B-	A-	.	A-	.	.	.	.
1FF#X	.	.	.	1A	.	.	.	0A	.	.	.	.	.	.	.
=55-	=55-	=55-	=55-	=55-	=55-	=55-	=55-	=55-	=55-	=55-	=55-	=55-	=55-	=55-	=55-
0.GG	.	.	.	0.B-	.	.	.	.	.	.	.	[0.dl	-men	.	-men.
*	*	*	*	*	*	*	*	*	*	*	*	*	*Xij	*	*
.	.	.	.	.	.	.	.	4G/	.	.	.	.	.	.	.
.	.	.	.	.	.	.	.	4F#i/	.	.	.	.	.	.	.
!	!	!	!	!	!	!	!	!LO:MO:mod=!null:null	!	!	!	!	!	!	!
!	!	!	!	!	!	!	!	!LO:N:vis=4:xstem	!	!	!	!	!	!	!
.	.	.	.	.	.	.	.	1.G	.	.	.	.	.	.	.
=56-	=56-	=56-	=56-	=56-	=56-	=56-	=56-	=56-	=56-	=56-	=56-	=56-	=56-	=56-	=56-
!LO:MO:mod=!null:null	!	!	!	!	!	!	!	!	!	!	!	!	!	!	!
!LO:N:vis=00	!	!	!	!LO:N:vis=0	!	!	!	!LO:TX:b:t=P:problem=♯ below:mod=	!	!	!	!LO:MO:mod=0.d];	!	!	!
!LO:MO:mod=0.D;	!	!	!	!	!	!	!	!	!	!	!	!	!	!	!
0.Dl	-men	.	-men.	0.A;	-men	.	-men.	0.F#X;	-men	.	-men.	0.d]	.	.	.
*	*Xij	*	*	*	*Xij	*	*	*	*Xij	*	*Xij	*	*	*	*
==	==	==	==	==	==	==	==	==	==	==	==	==	==	==	==
*-	*-	*-	*-	*-	*-	*-	*-	*-	*-	*-	*-	*-	*-	*-	*-
!!!system-decoration: [s1,s2,s3,s4]
!!!RDF**kern: i = editorial accidental
!!LO:MO:ori
!!!RDF**kern: > = above
!!!RDF**kern: < = below
!!!RDF**kern: l = terminal long
!!LO:MO:end
!!!filter-modern: sic -sq | autostem -r | tie -s | shed -e "s/-//B" | shed -k -e "s/[<>]//g" | shed -e "s/LO:DY:(a|b|rj)/LO:dy:$1/L" | shed -e "s/^(\d+[\/\\]right)/$1yy/I; s/^(\d+[\/\\]left)/$1yy/I" | shed -e "s/^custos:/Xcustos:/I" | shed -k -e "s/r[a-gA-G]+/r/D" | modori -m
!!!ENC: Krzysztof Stępień
!!!END: 2021-02-23
!!!ENC: Marta Lawrence
!!!END: 2021-03-06
!!!ENC-modern: Marta Lawrence
!!!END-modern: 2022-07-13
